lib/healthicons/icons/outline/typography/W.svg

<svg fill="none" height="48" viewBox="0 0 48 48" width="48" xmlns="http://www.w3.org/2000/svg"><path clip-rule="evenodd" d="m11.5068 9.04055c-1.63433.27239-2.73839 1.81805-2.466 3.45235l4 24c.2086 1.2516 1.182 2.2366 2.4309 2.46 1.249.2234 2.5035-.3631 3.133-1.4647l5.3953-9.4418 5.3953 9.4418c.6295 1.1016 1.8839 1.6881 3.1329 1.4647s2.2224-1.2084 2.431-2.46l4-24c.2724-1.6343-.8317-3.17996-2.466-3.45234-1.6343-.27239-3.18.83167-3.4524 2.46594l-2.6152 15.6914-3.8209-6.6866c-.5341-.9347-1.5282-1.5116-2.6047-1.5116-1.0766 0-2.0706.5769-2.6048 1.5116l-3.8208 6.6865-2.6152-15.6913c-.2724-1.63427-1.8181-2.73833-3.4524-2.46595zm-.4932 3.12355c-.0908-.5447.2772-1.06.822-1.1508s1.06.2773 1.1508.822l3.0768 18.4609c.0695.4172.394.7455.8103.82s.8345-.121 1.0443-.4882l5.2139-9.1244c.1781-.3116.5094-.5039.8683-.5039.3588 0 .6902.1923.8682.5039l5.2139 9.1244c.2099.3672.628.5627 1.0444.4882.4163-.0745.7407-.4028.8103-.82l3.0768-18.4609c.0908-.5447.606-.9128 1.1508-.822s.9128.6061.822 1.1508l-4 24c-.0696.4172-.394.7455-.8103.82-.4164.0745-.8345-.121-1.0444-.4882l-6.2635-10.9612c-.178-.3115-.5094-.5038-.8682-.5038-.3589 0-.6902.1923-.8683.5038l-6.2635 10.9612c-.2098.3672-.628.5627-1.0443.4882s-.7408-.4028-.8103-.82z" fill="#333" fill-rule="evenodd"/></svg>

<svg width="48" height="48" viewBox="0 0 48 48" fill="none" xmlns="http://www.w3.org/2000/svg">
<path fill-rule="evenodd" clip-rule="evenodd" d="M11.5065 9.04068C9.87223 9.31306 8.76817 10.8587 9.04055 12.4931L13.0406 36.4931C13.2491 37.7446 14.2225 38.7296 15.4715 38.953C16.7205 39.1764 17.975 38.5899 18.6045 37.4883L23.9997 28.0466L29.395 37.4883C30.0245 38.5899 31.279 39.1764 32.528 38.953C33.7769 38.7296 34.7503 37.7446 34.9589 36.4931L38.9589 12.4931C39.2313 10.8587 38.1272 9.31306 36.4929 9.04068C34.8586 8.76829 33.3129 9.87235 33.0406 11.5067L30.4253 27.198L26.6045 20.5114C26.0703 19.5767 25.0763 18.9999 23.9997 18.9999C22.9232 18.9999 21.9291 19.5767 21.395 20.5114L17.5741 27.198L14.9589 11.5067C14.6865 9.87235 13.1409 8.76829 11.5065 9.04068ZM11.0133 12.1643C10.9225 11.6195 11.2906 11.1043 11.8353 11.0135C12.3801 10.9227 12.8953 11.2907 12.9861 11.8355L16.0629 30.2963C16.1325 30.7135 16.4569 31.0418 16.8733 31.1163C17.2896 31.1908 17.7077 30.9953 17.9176 30.6281L23.1315 21.5037C23.3095 21.1921 23.6409 20.9999 23.9997 20.9999C24.3586 20.9999 24.6899 21.1921 24.868 21.5037L30.0819 30.6281C30.2917 30.9953 30.7099 31.1908 31.1262 31.1163C31.5425 31.0418 31.867 30.7135 31.9365 30.2963L35.0133 11.8355C35.1041 11.2907 35.6194 10.9227 36.1641 11.0135C36.7089 11.1043 37.0769 11.6195 36.9861 12.1643L32.9861 36.1643C32.9166 36.5814 32.5921 36.9098 32.1758 36.9842C31.7595 37.0587 31.3413 36.8632 31.1315 36.496L24.868 25.5348C24.6899 25.2233 24.3586 25.031 23.9997 25.031C23.6409 25.031 23.3095 25.2233 23.1315 25.5348L16.868 36.496C16.6581 36.8632 16.24 37.0587 15.8237 36.9842C15.4073 36.9098 15.0829 36.5814 15.0133 36.1643L11.0133 12.1643Z" fill="#333333"/>
</svg>
